X:1
T:Thou, lord, hast been a defence unto the poor
T:John Wall Callcott (1766-1821)
T:Text adapted from the Bible, Isaiah, chapter 25, verse 4
T:Thou, lord, hast been a defence unto the poor
T:Canon, four in two
T:Copyright © 
T:Copyright © 
T:Copyright © 
C:John Wall Callcott (1766-1821)
Z:Text adapted from the Bible,
Z:Isaiah, chapter 25, verse 4
Z:Copyright ©
%%score [ 1 2 3 4 ]
L:1/8
M:3/2
K:E
V:1 treble nm="Soprano" snm="S."
V:2 treble nm="Alto" snm="A."
V:3 treble-8 transpose=-12 nm="Tenor" snm="T."
V:4 bass nm="Bass" snm="B."
V:1
"^Andante" G4 B4 E4 | e8 B3 B | c3 F G4 A4 | G4 z4 z4 | z8 e4 | (e3 c) B4 B4 | B4 B4 G4 | %7
w: Thou, lord, hast|been a de-|fence un- to the|poor,|a|strength _ to the|need- y, a|
 c6 c2 B2 B2 | ^A4 B8 | E3 E E4 B4 | A4 z4 e4 | e3 e d4 d4 | e4 z4 z2 B2 | c2 cB A2 F2 G2 E2 | %14
w: re- fuge from the|storm, a|sha- dow from the|heat, a|sha- dow from the|heat, a|shel- ter a- gainst the ra- ging|
 A2 A2 z2 F2 B3 A | (GFGA BAGF GA) (GF) | E2 e2 z2 d2 e2 B2 | (cdcB ABcd ed) (ef) | %18
w: tem- pest, a- gainst the|ra- * * * * * * * * * ging _|tem- pest, a- gainst the|ra- * * * * * * * * * ging _|
 B2 B2 z2 f2 e3 e | (edcB AGAF GF) (GE) | c2 A2 z4 z4 | G4 B4 E4 | e8 B3 B | c3 F G4 A4 | %24
w: tem- pest, a- gainst the|ra- * * * * * * * * * ging _|tem- pest.|Thou, lord, hast|been a de-|fence un- to the|
 G4 z4 z4 | z8 e4 | (e3 c) B4 B4 | B4 !fermata!B4 |] %28
w: poor,|a|strength _ to the|need- y,|
V:2
 E4 D4 C4 | G,4 z4 E3 E | A,4 B,4 B,4 | E4 z4 z4 | z8 E4 | E6 E2 D4 | E4 G4 E4 | A3 A A4 G4 | %8
w: Thou, lord, hast|been a de-|fence to the|poor,|a|strength to the|need- y, a|re- fuge from the|
 F8 F2 F2 | (GAGF E4) G4 | F4 D4 E4 | C3 C D4 B,4 | E4 z4 z4 | z8 z2 E2 | E2 EE F2 A2 G2 F2 | %15
w: storm, from the|storm, _ _ _ _ a|sha- dow, a|sha- dow from the|heat,||shel- ter a- gainst the ra- ging|
 E2 E2 z2 B,2 E3 D | (CDED CB,CA, B,A,) (B,G,) | A,4 A,2 F2 E2 D2 | (EDEF GFED EB,) (CD) | %19
w: tem- pest, a- gainst the|ra- * * * * * * * * * ging _|tem- pest, a- gainst the|ra- * * * * * * * * * ging _|
 E2 E2 z4 z4 | z12 | E4 D4 C4 | G,4 z4 E3 E | A,4 B,4 B,4 | E4 z4 z4 | z8 E4 | E6 E2 D4 | %27
w: tem- pest.||Thou, lord, hast|been a de-|fence to the|poor,|a|strength to the|
 E4 !fermata!G4 |] %28
w: need- y,|
V:3
 z12 | z12 | z12 | G4 B4 E4 | e8 B3 B | c3 F G4 A4 | G4 z4 z4 | z8 e4 | (e3 c) B4 B4 | B4 B4 G4 | %10
w: |||Thou, lord, hast|been a de-|fence un- to the|poor,|a|strength _ to the|need- y, a|
 c6 c2 B2 B2 | ^A4 B8 | E3 E E4 B4 | A4 z4 e4 | e3 e d4 d4 | e4 z4 z2 B2 | c2 cB A2 F2 G2 E2 | %17
w: re- fuge from the|storm, *|a sha- dow from|heat, a|sha- dow from the|heat, a|shel- ter a- gainst the ra- ging|
 A2 A2 z2 F2 B3 A | (GFGA BAGF GA) (GF) | E2 e2 z2 d2 e2 B2 | (cdcB ABcd ed) (ef) | %21
w: tem- pest, a- gainst the|ra- * * * * * * * * * ging _|tem- pest. a- gainst the|ra- * * * * * * * * * ging _|
 B2 B2 z2 f2 e3 e | (edcB AGAF GF) GE | c2 A2 z4 z4 | G4 B4 E4 | e8 B3 B | c3 F G4 A4 | %27
w: tem- pest, a- gainst the|ra- * * * * * * * * * ging _|tem- pest.|Thou, lord, hast|been a de-|fence un- to the|
 !fermata!G8 |] %28
w: poor,|
V:4
 z12 | z12 | z12 | E,4 D,4 C,4 | G,,4 z4 E,3 E, | A,,4 B,,4 B,,4 | E,4 z4 z4 | z8 E,4 | %8
w: |||Thou, lord, hast|been a de-|fence to the|poor,|a|
 E,6 E,2 D,4 | E,4 G,4 E,4 | A,3 A, A,4 G,4 | F,8 F,3 F, | (G,A,G,F, E,4) G,4 | F,4 D,4 E,4 | %14
w: strength to the|need- y, a|re- fuge from the|storm, from the|storm, _ _ _ _ a|sha- dow, a|
 C,3 C, D,4 B,,4 | E,4 z4 z4 | z8 z2 E,2 | E,2 E,E, F,2 A,2 G,2 F,2 | E,2 E,2 z2 B,,2 E,3 D, | %19
w: sha- dow from the|heat,|a|shel- ter a- gainst the ra- ging|tem- pest, a- gainst the|
 (C,D,E,D, C,B,,C,A,, B,,A,,) (B,,G,,) | A,,4 A,,2 F,2 E,2 D,2 | (E,D,E,F, G,F,E,D, E,B,,) C,D, | %22
w: ra- * * * * * * * * * ging _|tem- pest, a- gainst the|ra- * * * * * * * * * ging _|
 E,2 E,2 z4 z4 | z12 | E,4 D,4 C,4 | G,,4 z4 E,3 E, | A,,4 B,,4 B,,4 | !fermata!E,8 |] %28
w: tem- pest.||Thou, lord, hast|been a de-|fence to the|poor,|

